22x22/apps/cs-privacy.svg

<svg xmlns="http://www.w3.org/2000/svg" width="22" height="22" version="1">
 <rect style="fill:#325f78" width="20" height="20" x="1" y="1" rx="10" ry="10"/>
 <rect style="opacity:0.2" width="16" height="16" x="-19.5" y="-19" rx="8" ry="8" transform="matrix(0,-1,-1,0,0,0)"/>
 <rect style="fill:#5c8ba2" width="16" height="16" x="-19" y="-19" rx="8" ry="8" transform="matrix(0,-1,-1,0,0,0)"/>
 <path style="opacity:0.2" d="M 7.0215,11.213 C 7.0146,11.309 7,11.402 7,11.5 c 0,2.2091 1.7909,4 4,4 2.2091,0 4,-1.7909 4,-4 0,-0.09774 -0.01462,-0.19112 -0.02148,-0.28711 -0.112,2.108 -1.842,3.787 -3.978,3.787 -2.1363,0 -3.8657,-1.679 -3.9785,-3.787 z"/>
 <path style="fill:#f4f4f7" d="M 11,5.5 9.5156,7.2812 C 8.0393,7.8697 7,9.3138 7,11 c 0,2.2091 1.7909,4 4,4 2.2091,0 4,-1.7909 4,-4 C 15,9.3138 13.9607,7.8697 12.4844,7.2812 L 11.0004,5.5 Z"/>
 <path style="opacity:0.1;fill:#f4f4f7" d="M 11,1 C 5.46,1 1,5.46 1,11 1,11.083 1.0065,11.164 1.0117,11.246 1.1468,5.8255 5.5457,1.5 11,1.5 c 5.4543,0 9.8532,4.3255 9.9883,9.7461 0.005,-0.082 0.012,-0.163 0.012,-0.246 0,-5.54 -4.46,-10 -10,-10 z"/>
 <path style="opacity:0.1;fill:#f4f4f7" d="M 11,5.5 9.5156,7.2812 C 8.0393,7.8697 7,9.3138 7,11 7,11.146 7.0276,11.285 7.043,11.428 7.2483,9.9931 8.2099,8.8017 9.5156,8.2812 L 11,6.5 12.484,8.2812 c 1.3058,0.52047 2.2674,1.7118 2.4727,3.1465 0.015,-0.143 0.043,-0.282 0.043,-0.428 0,-1.6862 -1.039,-3.1303 -2.516,-3.7188 l -1.484,-1.7812 z"/>
 <path style="opacity:0.2" d="M 1.0117,11.25 C 1.0097,11.334 1,11.416 1,11.5 c 0,5.54 4.46,10 10,10 5.54,0 10,-4.46 10,-10 0,-0.08441 -0.0097,-0.1661 -0.01172,-0.25 -0.133,5.422 -4.532,9.75 -9.988,9.75 -5.4556,0 -9.8552,-4.328 -9.9883,-9.75 z"/>
 <path style="opacity:0.1;fill:#f4f4f7" d="M 11,3 C 6.568,3 3,6.568 3,11 3,11.08441 3.00915,11.16624 3.011719,11.25 3.1440711,6.9356504 6.6524059,3.5 11,3.5 c 4.347594,0 7.855929,3.4356504 7.988281,7.75 C 18.990851,11.16624 19,11.084406 19,11 19,6.568 15.432,3 11,3 Z"/>
</svg>

<svg xmlns="http://www.w3.org/2000/svg" width="22" height="22" version="1"><rect style="fill:#325f78" width="20" height="20" x="1" y="1" rx="10" ry="10"/><rect style="opacity:.2" width="16" height="16" x="-19.5" y="-19" rx="8" ry="8" transform="matrix(0 -1 -1 0 0 0)"/><rect style="fill:#5c8ba2" width="16" height="16" x="-19" y="-19" rx="8" ry="8" transform="matrix(0 -1 -1 0 0 0)"/><path style="opacity:.2" d="M7.021 11.213c-.006.096-.021.189-.021.287a4 4 0 0 0 8 0c0-.098-.015-.191-.021-.287A3.989 3.989 0 0 1 11 15c-2.137 0-3.866-1.68-3.979-3.787z"/><path style="fill:#f4f4f7" d="M11 5.5 9.516 7.281A4 4 0 0 0 7 11a4 4 0 0 0 8 0 4 4 0 0 0-2.516-3.719L11 5.5z"/><path style="opacity:.1;fill:#f4f4f7" d="M11 1C5.46 1 1 5.46 1 11c0 .083.006.164.012.246A9.972 9.972 0 0 1 11 1.5a9.972 9.972 0 0 1 9.988 9.746c.005-.082.012-.163.012-.246 0-5.54-4.46-10-10-10z"/><path style="opacity:.1;fill:#f4f4f7" d="M11 5.5 9.516 7.281A4 4 0 0 0 7 11c0 .146.028.285.043.428a4 4 0 0 1 2.473-3.147L11 6.5l1.484 1.781a4 4 0 0 1 2.473 3.147c.015-.143.043-.282.043-.428a4 4 0 0 0-2.516-3.72L11 5.5z"/><path style="opacity:.2" d="M1.012 11.25c-.002.084-.012.166-.012.25 0 5.54 4.46 10 10 10s10-4.46 10-10c0-.084-.01-.166-.012-.25A9.972 9.972 0 0 1 11 21a9.972 9.972 0 0 1-9.988-9.75z"/><path style="opacity:.1;fill:#f4f4f7" d="M11 3c-4.432 0-8 3.568-8 8 0 .084.01.166.012.25A7.977 7.977 0 0 1 11 3.5a7.977 7.977 0 0 1 7.988 7.75c.003-.084.012-.166.012-.25 0-4.432-3.568-8-8-8z"/></svg>
